icons/svg/eraser.svg

<svg width="24" height="24" viewBox="0 0 24 24" fill="none" xmlns="http://www.w3.org/2000/svg">
<path d="M9.78792 20.4999H18.8077M9.78792 20.4999C10.6868 20.506 11.5876 20.1662 12.2735 19.4803L13.5635 18.1903M9.78792 20.4999C8.90489 20.4939 8.0237 20.154 7.34996 19.4803L4.0197 16.15C2.6601 14.7904 2.6601 12.5861 4.0197 11.2265L5.30972 9.93649M5.30972 9.93649L10.7265 4.5197C12.0861 3.1601 14.2904 3.1601 15.65 4.5197L18.9803 7.84996C20.3399 9.20955 20.3399 11.4139 18.9803 12.7735L13.5635 18.1903M5.30972 9.93649L5.67727 10.304L13.2619 17.8887L13.5635 18.1903" stroke="currentColor" stroke-width="1.5" stroke-linecap="round" stroke-linejoin="round"/>
</svg>

<svg xmlns="http://www.w3.org/2000/svg" width="24" height="24" fill="none" viewBox="0 0 24 24"><path stroke="currentColor" stroke-linecap="round" stroke-linejoin="round" stroke-width="1.5" d="M9.788 20.5h9.02m-9.02 0a3.47 3.47 0 0 0 2.486-1.02l1.29-1.29M9.788 20.5a3.47 3.47 0 0 1-2.438-1.02l-3.33-3.33a3.48 3.48 0 0 1 0-4.923l1.29-1.29m0 0 5.417-5.417a3.48 3.48 0 0 1 4.923 0l3.33 3.33a3.48 3.48 0 0 1 0 4.924l-5.417 5.416M5.31 9.936l.367.368 7.585 7.585.301.301"/></svg>
